services/img/KupolFlow.svg

<?xml version="1.0" encoding="UTF-8"?>
<svg id="_Слой_1" data-name="Слой_1" xmlns="http://www.w3.org/2000/svg" version="1.1" viewBox="0 0 175.9 55.8">
  <!-- Generator: Adobe Illustrator 29.3.1, SVG Export Plug-In . SVG Version: 2.1.0 Build 151)  -->
  <defs>
    <style>
      .st0 {
        fill: #00509d;
      }
    </style>
  </defs>
  <path class="st0" d="M124.2,13.2c-7.4,0-13.5,6.1-13.5,13.5v4.6c0,7.4,6.1,13.5,13.5,13.5h1.2c7.4,0,13.5-6.1,13.5-13.5v-4.5c0-7.4-6.1-13.5-13.5-13.5h-1.2ZM130.3,25.8v6.9c0,3.1-2.6,5.7-5.7,5.7s-5.7-2.6-5.7-5.7v-6.9c0-3.1,2.6-5.7,5.7-5.7s5.7,2.6,5.7,5.7Z"/>
  <path class="st0" d="M175.9,44.2V14h-14.2c-7.7,0-14.4,6.3-14.1,14.1l.7,16.2h8.4l-.8-17.8c0-3.1,2.6-5.7,5.7-5.7h5.7v23.5h8.6Z"/>
  <path class="st0" d="M101.9,44.2V14h-28.2v30.2h8.4v-23.5h11.4v23.5h8.4Z"/>
  <path class="st0" d="M38.1,35.8v8.4h3.8c13.9,0,23.1-12.1,23.1-23.2v-7.1h-8.4v6.7c0,2.4-.8,5.5-1.9,7.2-5-2.8-8.6-8.1-9.3-14h-8.8c1.1,8.1,4.9,14.9,11.9,20.1-1.4.8-3.9,1.8-6.9,1.8h-3.5Z"/>
  <path class="st0" d="M0,14v30.2h8.4v-13.5h4.2c3.1,3.5,5.5,7.9,7.1,13.5h8.7c-1-5.5-3.3-11.3-8.4-17.9,3.8-2.9,6.8-7,8.1-12.4h-8.8c-2.1,4.8-5.9,7.6-10.7,8.3v-8.3H0Z"/>
  <path class="st0" d="M108,0h-3.3v55.8h3.3V0Z"/>
  <path class="st0" d="M144.9,0h-3.3v55.8h3.3V0Z"/>
  <path class="st0" d="M71,0h-3.3v55.8h3.3V0Z"/>
  <path class="st0" d="M34,0h-3.3v55.8h3.3V0Z"/>
</svg>

<svg width="373" height="56" viewBox="0 0 373 56" fill="none" xmlns="http://www.w3.org/2000/svg">
<path d="M124.2 13.2C116.8 13.2 110.7 19.3 110.7 26.7V31.3C110.7 38.7 116.8 44.8 124.2 44.8H125.4C132.8 44.8 138.9 38.7 138.9 31.3V26.8C138.9 19.4 132.8 13.3 125.4 13.3H124.2V13.2ZM130.3 25.8V32.7C130.3 35.8 127.7 38.4 124.6 38.4C121.5 38.4 118.9 35.8 118.9 32.7V25.8C118.9 22.7 121.5 20.0999 124.6 20.0999C127.7 20.0999 130.3 22.7 130.3 25.8Z" fill="#00509D"/>
<path d="M175.9 44.2V14H161.7C154 14 147.3 20.3 147.6 28.1L148.3 44.3H156.7L155.9 26.5C155.8 23.4 158.5 20.8 161.6 20.8H167.3V44.3H175.9V44.2Z" fill="#00509D"/>
<path d="M101.9 44.2V14H73.7V44.2H82.1V20.7H93.5V44.2H101.9Z" fill="#00509D"/>
<path d="M38.1 35.8V44.2H41.9C55.8 44.2 65 32.1001 65 21.0001V13.9001H56.6V20.6C56.6 23 55.8 26.1 54.7 27.8C49.7 25 46.1 19.7 45.4 13.8H36.6C37.7 21.9 41.5 28.7001 48.5 33.9001C47.1 34.7001 44.6 35.7 41.6 35.7H38.1V35.8Z" fill="#00509D"/>
<path d="M0 13.9999V44.1999H8.4V30.6999H12.6C15.7 34.1999 18.1 38.5999 19.7 44.1999H28.4C27.4 38.6999 25.1 32.8999 20 26.2999C23.8 23.3999 26.8 19.2999 28.1 13.8999H19.3C17.2 18.6999 13.4 21.4999 8.6 22.1999V13.8999H0V13.9999Z" fill="#00509D"/>
<path d="M108 0H104.7V55.8H108V0Z" fill="#00509D"/>
<path d="M144.9 0H141.6V55.8H144.9V0Z" fill="#00509D"/>
<path d="M71 0H67.7V55.8H71V0Z" fill="#00509D"/>
<path d="M34 0H30.7V55.8H34V0Z" fill="#00509D"/>
<path d="M306.3 16.8999C303.5 16.8999 302.1 18.7999 302.1 22.1999V35.0999C302.1 38.3999 303.4 40.1999 306.3 40.1999C308.9 40.1999 310.3 38.4999 310.3 35.0999V22.2999C310.3 18.8999 308.8 16.8999 306.3 16.8999Z" fill="#00509D"/>
<path d="M189.6 55.8H373V0H189.6V55.8ZM213.6 12.5C217.1 12.3 220.5 13.4 223.4 14.9L225.4 15.9C226 16.2 226.7 16.5 227.3 16.8C228.6 17.4 229.9 17.9 231.2 18.2C233.9 18.9 236.7 18.9 239.8 17.9C237.8 20.5 234.2 21.8 230.7 21.6C227.2 21.5 223.9 20.2 221.2 18.7C218.7 17.4 216.1 16.3 213.4 15.9C210.7 15.4 207.9 15.7 204.9 17.1C206.6 14.4 210.1 12.6 213.6 12.5ZM231.2 43.3C227.7 43.5 224.3 42.4 221.4 40.9L219.4 39.9C218.8 39.6 218.1 39.3 217.5 39C216.2 38.4 214.9 37.9 213.6 37.6C210.9 36.9 208.1 36.9 205 37.9C207 35.3 210.6 34 214.1 34.2C217.6 34.3 220.9 35.6 223.6 37.1C226.1 38.4 228.7 39.5 231.4 39.9C234.1 40.4 236.9 40.1 239.9 38.7C238.2 41.4 234.7 43.2 231.2 43.3ZM235.1 32.5C230.3 33.1 225.6 31.8 221.5 29.9C217.8 28.2 213.9 26.9 210 26.8C206.1 26.7 202.1 27.9 198.8 30.9C200.4 26.8 205 23.9 209.8 23.3C214.6 22.7 219.3 24 223.4 25.9C227.1 27.6 231 28.9 234.9 29C238.8 29.1 242.9 27.9 246.1 24.9C244.4 29.1 239.8 31.9 235.1 32.5ZM273.5 17.4H262.9V24.7H272.9V29.5H262.9V44.1H256.9V12.5H273.5V17.4ZM293.9 44.2H277V12.6H283V39.3H293.9V44.2ZM316.4 34.3C316.4 42.3 312.3 44.9 306.3 44.9C300.3 44.9 296 42.2 296 34.3V22.8C296 14.8 300.3 12 306.3 12C312.4 12 316.4 14.8 316.4 22.8V34.3ZM348.2 44.2H339.8L336.6 22.2L333.3 44.2H324.9L319.8 12.6H325.8L329.4 39L333.3 12.6H339.7L343.6 39L347.2 12.6H353.2L348.2 44.2Z" fill="#00509D"/>
</svg>
